assets/flags/CK.svg

<?xml version="1.0" encoding="UTF-8"?>
<svg width="21px" height="15px" viewBox="0 0 21 15" version="1.1" xmlns="http://www.w3.org/2000/svg" xmlns:xlink="http://www.w3.org/1999/xlink">
    <!-- Generator: sketchtool 46 (44423) - http://www.bohemiancoding.com/sketch -->
    <title>CK</title>
    <desc>Created with sketchtool.</desc>
    <defs>
        <linearGradient x1="50%" y1="0%" x2="50%" y2="100%" id="linearGradient-1">
            <stop stop-color="#FFFFFF" offset="0%"></stop>
            <stop stop-color="#F0F0F0" offset="100%"></stop>
        </linearGradient>
        <linearGradient x1="50%" y1="0%" x2="50%" y2="100%" id="linearGradient-2">
            <stop stop-color="#0A17A7" offset="0%"></stop>
            <stop stop-color="#030E88" offset="100%"></stop>
        </linearGradient>
        <linearGradient x1="50%" y1="0%" x2="50%" y2="100%" id="linearGradient-3">
            <stop stop-color="#DB1E36" offset="0%"></stop>
            <stop stop-color="#D51931" offset="100%"></stop>
        </linearGradient>
    </defs>
    <g id="Symbols" stroke="none" stroke-width="1" fill="none" fill-rule="evenodd">
        <g id="CK">
            <rect id="FlagBackground" fill="url(#linearGradient-1)" x="0" y="0" width="21" height="15"></rect>
            <rect id="Mask-Copy" fill="url(#linearGradient-2)" x="0" y="0" width="21" height="15"></rect>
            <path d="M3,3.22996746 L-1.3516287,-0.5 L0.660232527,-0.5 L4.16023253,2 L4.85660189,2 L9.5,-0.902123821 L9.5,0.25 C9.5,0.552509227 9.33308555,0.876533554 9.08215972,1.05576629 L6,3.25730895 L6,3.77003254 L9.13722049,6.45907867 C9.59934261,6.85518335 9.34102897,7.5 8.75,7.5 C8.50478614,7.5 8.2052751,7.40393402 8.00092153,7.25796718 L4.83976747,5 L4.14339811,5 L-0.5,7.90212382 L-0.5,6.24269105 L3,3.74269105 L3,3.22996746 Z" id="Rectangle-36" fill="url(#linearGradient-1)" fill-rule="nonzero"></path>
            <path d="M3.5,3 L-4.4408921e-16,7.10542736e-15 L0.5,7.10542736e-15 L4,2.5 L5,2.5 L9,7.10542736e-15 L9,0.25 C9,0.388071187 8.91348267,0.561798096 8.79154062,0.648899555 L5.5,3 L5.5,4 L8.8118248,6.83870697 C8.91575109,6.92778665 8.8840332,7 8.75,7 L8.75,7 C8.61192881,7 8.41348267,6.9382019 8.29154062,6.85110044 L5,4.5 L4,4.5 L-4.4408921e-16,7 L-4.4408921e-16,6.5 L3.5,4 L3.5,3 Z" id="Rectangle-36" fill="url(#linearGradient-3)"></path>
            <path d="M-4.4408921e-16,2.5 L-4.4408921e-16,4.5 L3.5,4.5 L3.5,7.00461102 C3.5,7.2782068 3.71403503,7.5 4.00468445,7.5 L4.99531555,7.5 C5.27404508,7.5 5.5,7.2842474 5.5,7.00461102 L5.5,4.5 L9.00952148,4.5 C9.28040529,4.5 9.5,4.28596497 9.5,3.99531555 L9.5,3.00468445 C9.5,2.72595492 9.28494263,2.5 9.00952148,2.5 L5.5,2.5 L5.5,7.10542736e-15 L3.5,7.10542736e-15 L3.5,2.5 L-4.4408921e-16,2.5 Z" id="Rectangle-2" fill="url(#linearGradient-1)"></path>
            <polygon id="Rectangle-36" fill="url(#linearGradient-3)" points="-4.4408921e-16 3 4 3 4 2.5 4 7.10542736e-15 5 7.10542736e-15 5 2.5 5 3 9 3 9 4 5 4 5 4.5 5 7 4 7 4 4.5 4 4 -4.4408921e-16 4"></polygon>
            <path d="M15.5,5 C15.2238576,5 15,4.77614237 15,4.5 C15,4.22385763 15.2238576,4 15.5,4 C15.7761424,4 16,4.22385763 16,4.5 C16,4.77614237 15.7761424,5 15.5,5 Z M15.5,11 C15.2238576,11 15,10.7761424 15,10.5 C15,10.2238576 15.2238576,10 15.5,10 C15.7761424,10 16,10.2238576 16,10.5 C16,10.7761424 15.7761424,11 15.5,11 Z M13,7.5 C13,7.77614237 12.7761424,8 12.5,8 C12.2238576,8 12,7.77614237 12,7.5 C12,7.22385763 12.2238576,7 12.5,7 C12.7761424,7 13,7.22385763 13,7.5 Z M19,7.5 C19,7.77614237 18.7761424,8 18.5,8 C18.2238576,8 18,7.77614237 18,7.5 C18,7.22385763 18.2238576,7 18.5,7 C18.7761424,7 19,7.22385763 19,7.5 Z M13.732233,9.26776695 C13.9274952,9.4630291 13.9274952,9.77961159 13.732233,9.97487373 C13.5369709,10.1701359 13.2203884,10.1701359 13.0251263,9.97487373 C12.8298641,9.77961159 12.8298641,9.4630291 13.0251263,9.26776695 C13.2203884,9.07250481 13.5369709,9.07250481 13.732233,9.26776695 Z M17.9748737,5.02512627 C18.1701359,5.22038841 18.1701359,5.5369709 17.9748737,5.73223305 C17.7796116,5.92749519 17.4630291,5.92749519 17.267767,5.73223305 C17.0725048,5.5369709 17.0725048,5.22038841 17.267767,5.02512627 C17.4630291,4.82986412 17.7796116,4.82986412 17.9748737,5.02512627 Z M17.267767,9.26776695 C17.4630291,9.07250481 17.7796116,9.07250481 17.9748737,9.26776695 C18.1701359,9.4630291 18.1701359,9.77961159 17.9748737,9.97487373 C17.7796116,10.1701359 17.4630291,10.1701359 17.267767,9.97487373 C17.0725048,9.77961159 17.0725048,9.4630291 17.267767,9.26776695 Z M13.0251263,5.02512627 C13.2203884,4.82986412 13.5369709,4.82986412 13.732233,5.02512627 C13.9274952,5.22038841 13.9274952,5.5369709 13.732233,5.73223305 C13.5369709,5.92749519 13.2203884,5.92749519 13.0251263,5.73223305 C12.8298641,5.5369709 12.8298641,5.22038841 13.0251263,5.02512627 Z" id="Combined-Shape" fill="#FFFFFF"></path>
        </g>
    </g>
</svg>

<svg width="21" height="15" xmlns="http://www.w3.org/2000/svg"><defs><linearGradient x1="50%" y1="0%" x2="50%" y2="100%" id="a"><stop stop-color="#FFF" offset="0%"/><stop stop-color="#F0F0F0" offset="100%"/></linearGradient><linearGradient x1="50%" y1="0%" x2="50%" y2="100%" id="b"><stop stop-color="#0A17A7" offset="0%"/><stop stop-color="#030E88" offset="100%"/></linearGradient><linearGradient x1="50%" y1="0%" x2="50%" y2="100%" id="c"><stop stop-color="#DB1E36" offset="0%"/><stop stop-color="#D51931" offset="100%"/></linearGradient></defs><g fill="none" fill-rule="evenodd"><path fill="url(#a)" d="M0 0h21v15H0z"/><path fill="url(#b)" d="M0 0h21v15H0z"/><path d="M3 3.23-1.352-.5H.66L4.16 2h.697L9.5-.902V.25c0 .303-.167.627-.418.806L6 3.257v.513l3.137 2.69c.462.395.204 1.04-.387 1.04-.245 0-.545-.096-.75-.242L4.84 5h-.697L-.5 7.902v-1.66l3.5-2.5V3.23z" fill="url(#a)" fill-rule="nonzero"/><path d="M3.5 3 0 0h.5L4 2.5h1L9 0v.25a.537.537 0 0 1-.208.399L5.5 3v1l3.312 2.839c.104.089.072.161-.062.161a.898.898 0 0 1-.458-.149L5 4.5H4L0 7v-.5L3.5 4V3z" fill="url(#c)"/><path d="M0 2.5v2h3.5v2.505c0 .273.214.495.505.495h.99a.496.496 0 0 0 .505-.495V4.5h3.51a.49.49 0 0 0 .49-.505v-.99a.495.495 0 0 0-.49-.505H5.5V0h-2v2.5H0z" fill="url(#a)"/><path fill="url(#c)" d="M0 3h4V0h1v3h4v1H5v3H4V4H0z"/><path d="M15.5 5a.5.5 0 1 1 0-1 .5.5 0 0 1 0 1zm0 6a.5.5 0 1 1 0-1 .5.5 0 0 1 0 1zM13 7.5a.5.5 0 1 1-1 0 .5.5 0 0 1 1 0zm6 0a.5.5 0 1 1-1 0 .5.5 0 0 1 1 0zm-5.268 1.768a.5.5 0 1 1-.707.707.5.5 0 0 1 .707-.707zm4.243-4.243a.5.5 0 1 1-.707.707.5.5 0 0 1 .707-.707zm-.707 4.243a.5.5 0 1 1 .707.707.5.5 0 0 1-.707-.707zm-4.243-4.243a.5.5 0 1 1 .707.707.5.5 0 0 1-.707-.707z" fill="#FFF"/></g></svg>
